SharedPackages/Infrastructure/DesignResourcesKitIcons/Sources/DesignResourcesKitIcons/DesignSystemImages.xcassets/Color/16px/DuckDuckGo-Color-16.imageset/DuckDuckGo-Color-16.svg

<svg width="16" height="16" viewBox="0 0 16 16" fill="none" xmlns="http://www.w3.org/2000/svg">
<g clip-path="url(#clip0_13193_106468)">
<path fill-rule="evenodd" clip-rule="evenodd" d="M8 16C12.4183 16 16 12.4183 16 8C16 3.58172 12.4183 0 8 0C3.58172 0 0 3.58172 0 8C0 12.4183 3.58172 16 8 16Z" fill="#F05F2B"/>
<path fill-rule="evenodd" clip-rule="evenodd" d="M9.12491 13.9688C9.12491 13.9063 9.14024 13.892 8.94157 13.496C8.41357 12.4387 7.88291 10.948 8.12424 9.98667C8.16824 9.812 7.62691 3.51867 7.24424 3.316C6.81891 3.08934 6.29558 2.72977 5.81692 2.64977C5.57406 2.61091 5.25562 2.62932 5.0067 2.66284C4.96245 2.6688 4.96062 2.74832 5.0029 2.76265C5.16633 2.81802 5.36477 2.91415 5.48173 3.0595C5.50386 3.08702 5.47415 3.13029 5.43886 3.13159C5.32863 3.13568 5.12863 3.18189 4.86477 3.40601C4.83425 3.43193 4.8596 3.48006 4.89888 3.47229C5.46595 3.3601 6.04507 3.41538 6.38637 3.72559C6.40851 3.74572 6.39693 3.78184 6.36806 3.78968C3.40629 4.59456 3.99259 7.17096 4.78105 10.3327C5.48241 13.1451 5.74693 14.0541 5.83063 14.332C5.83891 14.3595 5.85824 14.3813 5.88491 14.3919C6.90492 14.7975 9.12491 14.8153 9.12491 14.125V13.9688Z" fill="#DDDDDD"/>
<path d="M9.53139 14.5625C9.17202 14.7031 8.46889 14.7656 8.06264 14.7656C7.46705 14.7656 6.60952 14.6719 6.29702 14.5313C6.10403 13.9373 5.52643 12.0962 4.95607 9.75814C4.9374 9.68163 4.91876 9.60548 4.90021 9.52972L4.89975 9.52782C4.22171 6.75831 3.6679 4.49626 6.70313 3.78563C6.73088 3.77914 6.74445 3.74596 6.72608 3.72417C6.37783 3.31103 5.72543 3.17562 4.90051 3.4602C4.86668 3.47188 4.8373 3.43776 4.85832 3.40879C5.02008 3.18583 5.3362 3.01439 5.49226 2.93924C5.52452 2.9237 5.52256 2.87647 5.48839 2.86578C5.3863 2.83382 5.2125 2.78492 5.01699 2.75337C4.97074 2.7459 4.96657 2.66663 5.013 2.66038C6.18247 2.50304 7.40368 2.85415 8.01651 3.6261C8.02228 3.63337 8.03062 3.63845 8.0397 3.6404C10.2838 4.12232 10.4445 7.66976 10.186 7.83134C10.135 7.86319 9.97165 7.84491 9.7562 7.82081C8.88303 7.72311 7.15396 7.52966 8.58101 10.1892C8.59511 10.2155 8.57645 10.2503 8.54699 10.2548C7.74224 10.38 8.77348 12.9015 9.53139 14.5625Z" fill="white"/>
<path d="M14 8C14 4.68629 11.3137 2 8 2C4.68629 2 2 4.68629 2 8C2 11.3137 4.68629 14 8 14V15C4.13401 15 1 11.866 1 8C1 4.13401 4.13401 1 8 1C11.866 1 15 4.13401 15 8C15 11.866 11.866 15 8 15V14C11.3137 14 14 11.3137 14 8Z" fill="white"/>
<path d="M10.5353 11.3373C10.3645 11.2581 9.70761 11.7292 9.27164 12.0908C9.18052 11.9619 9.00872 11.8682 8.62118 11.9356C8.28199 11.9946 8.09475 12.0763 8.0112 12.2173C7.47585 12.0144 6.5752 11.7011 6.35761 12.0036C6.11977 12.3343 6.41705 13.8987 6.73294 14.1018C6.89788 14.2079 7.68677 13.7008 8.09873 13.3511C8.1652 13.4448 8.2722 13.4984 8.49219 13.4933C8.82488 13.4855 9.3645 13.4081 9.44825 13.2532C9.45334 13.2438 9.45772 13.2326 9.46145 13.22C9.88488 13.3782 10.6301 13.5457 10.7966 13.5207C11.2305 13.4555 10.7362 11.4304 10.5353 11.3373Z" fill="#3CA82B"/>
<path d="M9.31127 12.137C9.32924 12.1691 9.34368 12.2029 9.35596 12.2372C9.41632 12.406 9.51467 12.9431 9.4403 13.0758C9.36593 13.2084 8.88288 13.2725 8.58489 13.2776C8.28689 13.2828 8.21982 13.1738 8.15945 13.005C8.11116 12.8699 8.08739 12.5524 8.08796 12.3706C8.07575 12.1009 8.17429 12.0061 8.62971 11.9324C8.96674 11.8778 9.14494 11.9413 9.2478 12.0498C9.72628 11.6927 10.5246 11.1887 10.6025 11.2808C10.9908 11.7401 11.0398 12.8334 10.9558 13.2733C10.9283 13.4171 9.64265 13.1308 9.64265 12.9757C9.64265 12.3318 9.47556 12.1551 9.31127 12.137Z" fill="#38B26A"/>
<path d="M6.49506 11.9359C6.60035 11.7693 7.45424 11.9765 7.92296 12.1851C7.92296 12.1851 7.82664 12.6215 7.97999 13.1356C8.02484 13.286 6.90162 13.9553 6.75501 13.8402C6.58557 13.7071 6.27373 12.2862 6.49506 11.9359Z" fill="#38B26A"/>
<path fill-rule="evenodd" clip-rule="evenodd" d="M6.90861 8.55085C6.9777 8.25042 7.29952 7.68433 8.44874 7.69808C9.02975 7.69566 9.75145 7.69783 10.2299 7.64348C10.9411 7.5627 11.4689 7.39068 11.8207 7.2566C12.3182 7.06681 12.4947 7.10914 12.5566 7.2227C12.6246 7.34747 12.5445 7.56294 12.3706 7.76128C12.0386 8.14014 11.4417 8.43371 10.3875 8.52084C9.33335 8.60797 8.63496 8.32519 8.33432 8.78559C8.20466 8.98415 8.3049 9.45214 9.32438 9.59951C10.702 9.79833 11.8334 9.35994 11.9732 9.6247C12.113 9.88946 11.3077 10.4281 9.92787 10.4394C8.54802 10.4507 7.68615 9.95631 7.38051 9.71056C6.99273 9.39877 6.8192 8.94406 6.90861 8.55085Z" fill="#FFC95C"/>
<path d="M8.66576 5.26591C8.74272 5.13988 8.91339 5.0426 9.1927 5.0426C9.47201 5.0426 9.60341 5.15374 9.69437 5.27768C9.71287 5.30289 9.68484 5.33257 9.65614 5.32016C9.64924 5.31717 9.64224 5.31412 9.63514 5.31102C9.53299 5.2664 9.40757 5.21162 9.1927 5.20857C8.96289 5.2053 8.81799 5.26285 8.72673 5.31246C8.69598 5.32918 8.64752 5.29577 8.66576 5.26591Z" fill="#034180"/>
<path d="M5.52123 5.42714C5.79244 5.3138 6.00559 5.32845 6.15628 5.3641C6.18801 5.3716 6.21006 5.33747 6.18469 5.317C6.06773 5.22266 5.80596 5.10554 5.46456 5.23285C5.16002 5.34641 5.01647 5.58235 5.01563 5.73747C5.01543 5.77403 5.09064 5.77713 5.11009 5.74618C5.16265 5.66257 5.25002 5.54048 5.52123 5.42714Z" fill="#034180"/>
<path fill-rule="evenodd" clip-rule="evenodd" d="M9.42994 6.99C9.19017 6.99 8.99569 6.79605 8.99569 6.55734C8.99569 6.31864 9.19017 6.12469 9.42994 6.12469C9.66972 6.12469 9.8642 6.31864 9.8642 6.55734C9.8642 6.79605 9.66972 6.99 9.42994 6.99ZM9.73579 6.41401C9.73579 6.3522 9.68517 6.30212 9.62336 6.30212C9.56155 6.30212 9.51147 6.3522 9.51093 6.41401C9.51093 6.47582 9.56155 6.52591 9.62336 6.52591C9.6857 6.52591 9.73579 6.47582 9.73579 6.41401Z" fill="#034180"/>
<path fill-rule="evenodd" clip-rule="evenodd" d="M6.5528 6.85677C6.5528 7.13544 6.32635 7.36136 6.04662 7.36136C5.76742 7.36136 5.54044 7.13544 5.54044 6.85677C5.54044 6.5781 5.76742 6.35218 6.04662 6.35218C6.32582 6.35218 6.5528 6.5781 6.5528 6.85677ZM6.40361 6.68946C6.40361 6.61753 6.345 6.55892 6.27254 6.55892C6.20061 6.55892 6.142 6.617 6.14146 6.68946C6.14146 6.7614 6.20007 6.82001 6.27254 6.82001C6.345 6.82001 6.40361 6.7614 6.40361 6.68946Z" fill="#034180"/>
<path d="M15 8C15 4.13401 11.866 1 8 1C4.13401 1 1 4.13401 1 8C1 11.866 4.13401 15 8 15C11.866 15 15 11.866 15 8ZM16 8C16 12.4183 12.4183 16 8 16C3.58172 16 0 12.4183 0 8C1.9329e-07 3.58172 3.58172 1.93277e-07 8 0C12.4183 0 16 3.58172 16 8Z" fill="#F05F2B"/>
</g>
<defs>
<clipPath id="clip0_13193_106468">
<rect width="16" height="16" fill="white"/>
</clipPath>
</defs>
</svg>

<svg fill="none" viewBox="0 0 16 16" xmlns="http://www.w3.org/2000/svg">
  <g clip-path="url(#DuckDuckGo-Color-16_svg__a)">
    <path fill="#DE5833" fill-rule="evenodd" d="M8 16A8 8 0 1 0 8 0a8 8 0 0 0 0 16Z" clip-rule="evenodd"/>
    <path fill="#DDD" fill-rule="evenodd" d="M9.125 13.969c0-.063.015-.077-.183-.473-.528-1.057-1.06-2.548-.818-3.51.044-.174-.497-6.467-.88-6.67-.425-.227-.948-.586-1.427-.666a3.042 3.042 0 0 0-.81.013c-.045.006-.046.085-.004.1.163.055.362.151.479.296.022.028-.008.071-.043.073-.11.004-.31.05-.574.274-.03.026-.005.074.034.066.567-.112 1.146-.057 1.487.254.023.02.01.056-.018.064-2.962.805-2.375 3.381-1.587 6.543.701 2.812.966 3.721 1.05 3.999a.09.09 0 0 0 .054.06c1.02.405 3.24.423 3.24-.267v-.156Z" clip-rule="evenodd"/>
    <path fill="#fff" d="M9.531 14.563c-.359.14-1.062.203-1.468.203-.596 0-1.453-.094-1.766-.235A70.123 70.123 0 0 1 4.9 9.53v-.002c-.678-2.77-1.232-5.032 1.803-5.742.028-.007.041-.04.023-.062-.348-.413-1-.548-1.825-.264-.034.012-.064-.022-.043-.051.162-.223.478-.395.634-.47.033-.015.03-.063-.004-.073a3.482 3.482 0 0 0-.471-.113c-.046-.007-.05-.086-.004-.093 1.17-.157 2.39.194 3.004.966a.04.04 0 0 0 .023.014c2.244.482 2.405 4.03 2.146 4.191-.051.032-.214.014-.43-.01-.873-.098-2.602-.291-1.175 2.368.014.027-.005.061-.034.066-.805.125.226 2.646.984 4.307Z"/>
    <path fill="#3CA82B" d="M10.535 11.337c-.17-.079-.827.392-1.263.754-.091-.13-.263-.223-.65-.155-.34.058-.527.14-.61.281-.536-.203-1.437-.516-1.654-.213-.238.33.06 1.895.375 2.098.165.106.954-.401 1.366-.751.066.094.173.147.393.142.333-.008.872-.085.956-.24.005-.01.01-.02.013-.033.424.158 1.17.326 1.336.3.433-.065-.06-2.09-.262-2.183Z"/>
    <path fill="#4CBA3C" d="M9.311 12.137a.66.66 0 0 1 .045.1c.06.169.159.706.084.839-.074.132-.557.197-.855.202-.298.005-.365-.104-.426-.273-.048-.135-.072-.453-.071-.634-.012-.27.086-.365.542-.439.337-.054.515.01.618.118.478-.357 1.277-.861 1.354-.77.389.46.438 1.553.354 1.993-.028.144-1.313-.142-1.313-.297 0-.644-.167-.82-.332-.839Zm-2.816-.201c.105-.167.96.04 1.428.25 0 0-.096.435.057.95.045.15-1.078.82-1.225.704-.17-.133-.481-1.554-.26-1.904Z"/>
    <path fill="#FC3" fill-rule="evenodd" d="M6.909 8.55c.069-.3.39-.866 1.54-.852.58-.002 1.302 0 1.78-.055a6.406 6.406 0 0 0 1.592-.386c.497-.19.674-.148.736-.034.068.124-.013.34-.186.538-.332.38-.93.673-1.984.76-1.054.087-1.752-.196-2.053.265-.13.198-.03.666.99.814 1.378.198 2.51-.24 2.65.025.139.264-.666.803-2.046.814-1.38.012-2.242-.483-2.547-.728-.388-.312-.562-.767-.472-1.16Z" clip-rule="evenodd"/>
    <path fill="#14307E" d="M8.666 5.266c.077-.126.247-.223.527-.223.279 0 .41.11.501.235.019.025-.01.055-.038.042a1.027 1.027 0 0 0-.463-.112.91.91 0 0 0-.466.104c-.031.017-.08-.016-.061-.046Zm-3.145.161a.998.998 0 0 1 .635-.063c.032.008.054-.027.029-.047-.117-.094-.379-.211-.72-.084-.305.113-.449.35-.45.504 0 .037.076.04.095.01.053-.084.14-.207.411-.32Z"/>
    <path fill="#14307E" fill-rule="evenodd" d="M9.43 6.99a.434.434 0 1 1-.001-.867.434.434 0 0 1 0 .867Zm.306-.576a.112.112 0 0 0-.225 0 .112.112 0 0 0 .225 0Zm-3.183.443a.505.505 0 1 1-1.01-.002.505.505 0 0 1 1.01.002Zm-.15-.168a.13.13 0 1 0-.261.001.13.13 0 0 0 .262 0Z" clip-rule="evenodd"/>
    <path fill="#fff" fill-rule="evenodd" d="M8 14.25a6.25 6.25 0 1 0 0-12.5 6.25 6.25 0 0 0 0 12.5ZM8 15A7 7 0 1 0 8 1a7 7 0 0 0 0 14Z" clip-rule="evenodd"/>
    <path fill="#DE5833" fill-rule="evenodd" d="M0 8a8 8 0 1 1 16 0A8 8 0 0 1 0 8Zm8-7a7 7 0 1 0 0 14A7 7 0 0 0 8 1Z" clip-rule="evenodd"/>
  </g>
  <defs>
    <clipPath id="DuckDuckGo-Color-16_svg__a">
      <path fill="#fff" d="M0 0h16v16H0z"/>
    </clipPath>
  </defs>
</svg>
